public/sponsors/liberty.svg

<svg width="140" height="32" viewBox="0 0 140 32" fill="none" xmlns="http://www.w3.org/2000/svg">
<g clip-path="url(#clip0_612_81)">
<path d="M55.4947 0.617939C54.9707 0.617939 54.4587 0.775939 54.0247 1.07294C53.5872 1.37233 53.248 1.79434 53.0497 2.28594C52.8496 2.78043 52.7975 3.32239 52.8997 3.84594C53.0007 4.36778 53.2524 4.84858 53.6237 5.22894C53.9937 5.60694 54.4667 5.86394 54.9797 5.96794C55.4937 6.07194 56.0257 6.01794 56.5087 5.81294C56.9945 5.60614 57.4077 5.25942 57.6957 4.81694C58.0354 4.29556 58.1877 3.67409 58.1273 3.05472C58.067 2.43535 57.7977 1.85494 57.3637 1.40894C57.1202 1.15939 56.8295 0.960902 56.5084 0.825083C56.1873 0.689264 55.8433 0.618843 55.4947 0.617939ZM135.508 7.68594L131.519 20.0389H131.451L127.462 7.68594H122.686L129.03 25.4619C129.03 27.2689 127.978 28.4799 126.23 28.4799C125.176 28.4799 124.549 28.3889 124.011 28.1849L123.719 31.4319C124.709 31.7319 125.735 31.8849 126.768 31.8899C131.273 31.8899 132.281 28.2069 133.649 24.4549L139.878 7.68494L135.508 7.68594ZM118.989 21.5949C117.368 21.5949 116.995 20.2449 116.995 18.7809V10.8879H120.805V7.68594H116.995V2.88294L112.735 4.30094V7.68594H109.6V10.8879H112.735V19.5479C112.735 22.9099 114.573 25.0649 117.913 25.0649C118.972 25.0866 120.029 24.9553 121.051 24.6749L120.916 21.1779C120.32 21.4818 119.656 21.6262 118.989 21.5949ZM102.024 11.5749H101.978V7.68494H98.1617V24.6149H102.422V18.4169C102.422 15.9919 102.422 11.5199 105.895 11.5199C106.657 11.5199 107.419 11.6579 107.8 11.8869V7.47294C107.376 7.36131 106.938 7.31477 106.5 7.33494C103.951 7.34294 102.216 9.99694 102.024 11.5749ZM83.7347 14.5499C83.9347 12.2849 85.1447 10.5699 87.5887 10.5699C90.0317 10.5699 90.9727 12.4229 91.1027 14.5499H83.7347ZM87.2297 7.27494C82.0537 7.27494 79.4967 11.3249 79.4967 16.2439C79.4967 21.8239 82.7027 25.0489 88.1947 25.0489C90.5247 25.0489 92.3407 24.5939 93.9107 23.6999V20.0999C92.2887 21.0159 90.4807 21.8159 88.3727 21.8159C85.6827 21.8159 83.8237 20.2599 83.6217 17.5369H95.1187C95.1427 11.6119 93.3937 7.28894 87.2287 7.28894V7.27494H87.2297ZM69.0997 21.7099C66.2297 21.7099 65.2897 18.6199 65.2897 16.1929C65.2897 13.8149 66.3857 10.7939 69.1667 10.7939C71.9487 10.7939 72.7567 13.9309 72.7567 16.1959C72.7567 18.5519 71.9457 21.7099 69.0997 21.7099ZM70.4217 7.38794C68.1347 7.38794 66.6107 8.34994 65.4237 9.97494H65.2217V0.137939H60.9617V24.8439H65.2217V22.7839H65.2887C66.5667 24.6149 68.5837 25.2659 70.4237 25.2659C75.5587 25.2659 77.4507 20.9429 77.4507 16.2759C77.4377 11.5759 75.5547 7.38794 70.4217 7.38794ZM53.3427 24.6149H57.5997V7.68494H53.3427V24.6149ZM41.9127 1.73794H37.4297V24.8439H50.6537V21.1839H41.9137V1.73694L41.9127 1.73794Z" fill="black"/>
<path d="M22.862 24.615V0L0 24.615H22.862Z" fill="black"/>
<path d="M22.8623 13.8621H32.8623L22.8623 24.6371V13.8621Z" fill="black"/>
</g>
<defs>
<clipPath id="clip0_612_81">
<rect width="140" height="32" fill="white"/>
</clipPath>
</defs>
</svg>

<svg data-v-74165e8a="" width="140" height="32" viewBox="0 0 140 32" fill="none" xmlns="http://www.w3.org/2000/svg" class=""><path data-v-74165e8a="" d="M55.495.618c-.524 0-1.036.158-1.47.455a2.689 2.689 0 00-.975 1.213 2.753 2.753 0 00-.15 1.56 2.72 2.72 0 00.724 1.383c.37.378.843.635 1.356.739.514.104 1.046.05 1.529-.155a2.659 2.659 0 001.187-.996 2.741 2.741 0 00-.332-3.408 2.622 2.622 0 00-1.87-.791zm80.013 7.068l-3.989 12.353h-.068l-3.989-12.353h-4.776l6.344 17.776c0 1.807-1.052 3.018-2.8 3.018-1.054 0-1.681-.091-2.219-.295l-.292 3.247c.99.3 2.016.453 3.049.458 4.505 0 5.513-3.683 6.881-7.435l6.229-16.77h-4.37zm-16.519 13.909c-1.621 0-1.994-1.35-1.994-2.814v-7.893h3.81V7.686h-3.81V2.883l-4.26 1.418v3.385H109.6v3.202h3.135v8.66c0 3.362 1.838 5.517 5.178 5.517a11.01 11.01 0 003.138-.39l-.135-3.497a3.842 3.842 0 01-1.927.416zm-16.965-10.02h-.046v-3.89h-3.816v16.93h4.26v-6.198c0-2.425 0-6.897 3.473-6.897.762 0 1.524.138 1.905.367V7.473a4.323 4.323 0 00-1.3-.138c-2.549.008-4.284 2.662-4.476 4.24zM83.735 14.55c.2-2.265 1.41-3.98 3.854-3.98 2.443 0 3.384 1.853 3.514 3.98h-7.368zm3.495-7.275c-5.176 0-7.733 4.05-7.733 8.969 0 5.58 3.206 8.805 8.698 8.805 2.33 0 4.146-.455 5.716-1.349v-3.6c-1.622.916-3.43 1.716-5.538 1.716-2.69 0-4.549-1.556-4.751-4.279h11.497c.024-5.925-1.725-10.248-7.89-10.248v-.014zM69.1 21.71c-2.87 0-3.81-3.09-3.81-5.517 0-2.378 1.096-5.399 3.877-5.399 2.782 0 3.59 3.137 3.59 5.402 0 2.356-.811 5.514-3.657 5.514zm1.322-14.322c-2.287 0-3.811.962-4.998 2.587h-.202V.138h-4.26v24.706h4.26v-2.06h.067c1.278 1.831 3.295 2.482 5.135 2.482 5.135 0 7.027-4.323 7.027-8.99-.013-4.7-1.897-8.888-7.03-8.888zM53.343 24.615H57.6V7.685h-4.257v16.93zM41.913 1.738H37.43v23.106h13.224v-3.66h-8.74V1.737z" fill="#0A3370"></path><path data-v-74165e8a="" d="M22.862 24.615V0L0 24.615h22.862z" fill="#05B3CB"></path><path data-v-74165e8a="" d="M22.862 13.862h10l-10 10.775V13.862z" fill="#0A3370"></path></svg>
